X: 1
T: Mediator, The
M: 6/8
L: 1/8
R: jig
K: Dmaj
FGF FED|FGA d2A|FGF FED|FGA d2c|
BcB gfg|ABA fef|GAG e2d|1cdB ABG:|2 cdB A||
|: fg|a3 aba|agf gdB|g3 gag|gfe fdA|
fgf agf|gfg B2d|Agf Afe|1 ABc d:|2 ABc dAG||
